P3
32 32
255
8 12 28 8 12 28 8 12 28 8 12 28 8 12 28 8 12 28 8 12 28 8 12 28 8 12 28 8 12 28 8 12 28 8 12 28 8 12 28 8 12 28 8 12 28 8 12 28 8 12 28 8 12 28 8 12 28 8 12 28 8 12 28 8 12 28 8 12 28 8 12 28 8 12 28 8 12 28 8 12 28 8 12 28 8 12 28 8 12 28 8 12 28 8 12 28
8 12 28 8 12 28 8 12 28 8 12 28 8 12 28 8 12 28 8 12 28 8 12 28 8 12 28 8 12 28 8 12 28 8 12 28 8 12 28 8 12 28 8 12 28 8 12 28 8 12 28 8 12 28 8 12 28 8 12 28 8 12 28 8 12 28 8 12 28 8 12 28 8 12 28 8 12 28 8 12 28 8 12 28 8 12 28 8 12 28 8 12 28 8 12 28
8 12 28 8 12 28 8 12 28 8 12 28 8 12 28 8 12 28 8 12 28 8 12 28 8 12 28 8 12 28 8 12 28 8 12 28 8 12 28 8 12 28 8 12 28 8 12 28 8 12 28 8 12 28 8 12 28 8 12 28 8 12 28 8 12 28 8 12 28 8 12 28 8 12 28 8 12 28 8 12 28 8 12 28 8 12 28 8 12 28 8 12 28 8 12 28
8 12 28 8 12 28 8 12 28 120 180 255 8 12 28 8 12 28 8 12 28 8 12 28 8 12 28 8 12 28 8 12 28 8 12 28 8 12 28 8 12 28 8 12 28 8 12 28 8 12 28 8 12 28 8 12 28 8 12 28 8 12 28 8 12 28 8 12 28 8 12 28 8 12 28 8 12 28 8 12 28 8 12 28 8 12 28 8 12 28 8 12 28 8 12 28
8 12 28 8 12 28 8 12 28 8 12 28 8 12 28 8 12 28 8 12 28 8 12 28 8 12 28 8 12 28 8 12 28 8 12 28 8 12 28 8 12 28 8 12 28 8 12 28 8 12 28 8 12 28 8 12 28 8 12 28 8 12 28 8 12 28 8 12 28 8 12 28 120 180 255 8 12 28 8 12 28 8 12 28 8 12 28 8 12 28 8 12 28 8 12 28
8 12 28 8 12 28 8 12 28 8 12 28 18 18 28 18 18 28 18 18 28 18 18 28 18 18 28 18 18 28 8 12 28 8 12 28 8 12 28 8 12 28 8 12 28 8 12 28 8 12 28 8 12 28 8 12 28 8 12 28 8 12 28 8 12 28 18 18 28 18 18 28 18 18 28 18 18 28 18 18 28 18 18 28 8 12 28 8 12 28 8 12 28 8 12 28
8 12 28 8 12 28 8 12 28 18 18 28 110 74 46 110 74 46 110 74 46 110 74 46 110 74 46 110 74 46 18 18 28 8 12 28 8 12 28 8 12 28 8 12 28 8 12 28 18 18 28 8 12 28 8 12 28 8 12 28 8 12 28 18 18 28 110 74 46 110 74 46 110 74 46 110 74 46 110 74 46 110 74 46 18 18 28 8 12 28 8 12 28 8 12 28
8 12 28 8 12 28 8 12 28 18 18 28 110 74 46 110 74 46 110 74 46 110 74 46 110 74 46 110 74 46 18 18 28 8 12 28 18 18 28 18 18 28 18 18 28 18 18 28 184 132 76 18 18 28 18 18 28 18 18 28 18 18 28 18 18 28 110 74 46 110 74 46 110 74 46 110 74 46 110 74 46 110 74 46 18 18 28 8 12 28 8 12 28 8 12 28
8 12 28 8 12 28 8 12 28 18 18 28 110 74 46 110 74 46 110 74 46 110 74 46 110 74 46 110 74 46 18 18 28 18 18 28 184 132 76 184 132 76 184 132 76 184 132 76 184 132 76 184 132 76 184 132 76 184 132 76 184 132 76 18 18 28 18 18 28 110 74 46 110 74 46 110 74 46 110 74 46 110 74 46 120 180 255 8 12 28 8 12 28 8 12 28
8 12 28 8 12 28 8 12 28 18 18 28 110 74 46 110 74 46 110 74 46 110 74 46 110 74 46 18 18 28 184 132 76 184 132 76 184 132 76 184 132 76 184 132 76 184 132 76 184 132 76 184 132 76 184 132 76 184 132 76 184 132 76 184 132 76 184 132 76 18 18 28 110 74 46 110 74 46 110 74 46 110 74 46 18 18 28 8 12 28 8 12 28 8 12 28
8 12 28 8 12 28 8 12 28 18 18 28 110 74 46 110 74 46 110 74 46 110 74 46 18 18 28 184 132 76 184 132 76 214 164 98 184 132 76 184 132 76 214 164 98 184 132 76 184 132 76 184 132 76 184 132 76 184 132 76 184 132 76 184 132 76 184 132 76 184 132 76 18 18 28 110 74 46 110 74 46 110 74 46 18 18 28 8 12 28 8 12 28 8 12 28
8 12 28 8 12 28 8 12 28 18 18 28 110 74 46 110 74 46 110 74 46 18 18 28 184 132 76 184 132 76 214 164 98 184 132 76 184 132 76 214 164 98 184 132 76 184 132 76 184 132 76 184 132 76 184 132 76 184 132 76 184 132 76 184 132 76 184 132 76 184 132 76 184 132 76 18 18 28 110 74 46 110 74 46 18 18 28 8 12 28 8 12 28 8 12 28
8 12 28 8 12 28 8 12 28 18 18 28 110 74 46 110 74 46 18 18 28 18 18 28 184 132 76 214 164 98 184 132 76 184 132 76 214 164 98 184 132 76 184 132 76 214 164 98 184 132 76 184 132 76 184 132 76 184 132 76 184 132 76 184 132 76 184 132 76 184 132 76 184 132 76 18 18 28 18 18 28 110 74 46 18 18 28 8 12 28 8 12 28 8 12 28
8 12 28 8 12 28 8 12 28 18 18 28 110 74 46 18 18 28 18 18 28 184 132 76 184 132 76 184 132 76 184 132 76 214 164 98 184 132 76 184 132 76 214 164 98 184 132 76 184 132 76 184 132 76 184 132 76 184 132 76 184 132 76 184 132 76 184 132 76 184 132 76 184 132 76 184 132 76 18 18 28 18 18 28 8 12 28 8 12 28 8 12 28 8 12 28
8 12 28 8 12 28 8 12 28 8 12 28 18 18 28 8 12 28 18 18 28 184 132 76 184 132 76 184 132 76 214 164 98 255 245 220 255 245 220 214 164 98 184 132 76 184 132 76 184 132 76 184 132 76 184 132 76 255 245 220 255 245 220 184 132 76 184 132 76 0 255 220 184 132 76 184 132 76 18 18 28 8 12 28 8 12 28 8 12 28 8 12 28 8 12 28
8 12 28 8 12 28 8 12 28 8 12 28 8 12 28 8 12 28 18 18 28 184 132 76 184 132 76 214 164 98 184 132 76 255 245 220 20 20 20 184 132 76 184 132 76 214 164 98 184 132 76 184 132 76 184 132 76 255 245 220 20 20 20 184 132 76 0 255 220 0 255 220 184 132 76 184 132 76 18 18 28 8 12 28 8 12 28 8 12 28 8 12 28 8 12 28
8 12 28 8 12 28 8 12 28 8 12 28 8 12 28 8 12 28 18 18 28 184 132 76 184 132 76 184 132 76 184 132 76 214 164 98 184 132 76 184 132 76 214 164 98 184 132 76 232 205 170 184 132 76 184 132 76 184 132 76 184 132 76 184 132 76 184 132 76 0 255 220 0 255 220 184 132 76 18 18 28 8 12 28 8 12 28 8 12 28 8 12 28 8 12 28
8 12 28 8 12 28 8 12 28 8 12 28 8 12 28 18 18 28 184 132 76 184 132 76 184 132 76 184 132 76 214 164 98 184 132 76 184 132 76 232 205 170 232 205 170 232 205 170 232 205 170 232 205 170 232 205 170 232 205 170 184 132 76 184 132 76 184 132 76 0 255 220 184 132 76 184 132 76 18 18 28 8 12 28 8 12 28 8 12 28 8 12 28 8 12 28
8 12 28 8 12 28 8 12 28 8 12 28 8 12 28 8 12 28 18 18 28 184 132 76 184 132 76 214 164 98 184 132 76 184 132 76 232 205 170 232 205 170 30 24 24 30 24 24 30 24 24 30 24 24 232 205 170 232 205 170 232 205 170 184 132 76 184 132 76 184 132 76 184 132 76 184 132 76 18 18 28 8 12 28 8 12 28 8 12 28 8 12 28 8 12 28
8 12 28 8 12 28 8 12 28 8 12 28 8 12 28 8 12 28 18 18 28 184 132 76 184 132 76 184 132 76 184 132 76 214 164 98 232 205 170 232 205 170 30 24 24 30 24 24 30 24 24 30 24 24 232 205 170 232 205 170 232 205 170 184 132 76 184 132 76 184 132 76 184 132 76 184 132 76 18 18 28 8 12 28 8 12 28 8 12 28 8 12 28 8 12 28
22 42 78 22 42 78 22 42 78 22 42 78 22 42 78 22 42 78 22 42 78 184 132 76 184 132 76 184 132 76 184 132 76 232 205 170 232 205 170 232 205 170 232 205 170 232 205 170 232 205 170 232 205 170 232 205 170 232 205 170 232 205 170 184 132 76 184 132 76 184 132 76 184 132 76 184 132 76 22 42 78 22 42 78 22 42 78 22 42 78 22 42 78 22 42 78
8 12 28 8 12 28 8 12 28 8 12 28 8 12 28 8 12 28 18 18 28 184 132 76 184 132 76 184 132 76 184 132 76 184 132 76 18 18 28 232 205 170 232 205 170 232 205 170 232 205 170 232 205 170 232 205 170 18 18 28 232 205 170 184 132 76 184 132 76 184 132 76 184 132 76 184 132 76 18 18 28 8 12 28 8 12 28 8 12 28 8 12 28 8 12 28
22 42 78 8 12 28 8 12 28 8 12 28 22 42 78 8 12 28 8 12 28 18 18 28 184 132 76 184 132 76 184 132 76 184 132 76 232 205 170 18 18 28 18 18 28 18 18 28 18 18 28 18 18 28 18 18 28 232 205 170 232 205 170 184 132 76 184 132 76 184 132 76 184 132 76 18 18 28 8 12 28 8 12 28 22 42 78 8 12 28 8 12 28 8 12 28
8 12 28 8 12 28 8 12 28 8 12 28 8 12 28 8 12 28 8 12 28 18 18 28 184 132 76 184 132 76 184 132 76 184 132 76 184 132 76 232 205 170 232 205 170 232 205 170 232 205 170 232 205 170 232 205 170 232 205 170 184 132 76 184 132 76 184 132 76 184 132 76 184 132 76 18 18 28 8 12 28 8 12 28 8 12 28 8 12 28 8 12 28 8 12 28
22 42 78 22 42 78 22 42 78 22 42 78 22 42 78 22 42 78 22 42 78 22 42 78 22 42 78 184 132 76 184 132 76 184 132 76 184 132 76 184 132 76 184 132 76 184 132 76 184 132 76 184 132 76 184 132 76 184 132 76 184 132 76 184 132 76 184 132 76 184 132 76 22 42 78 22 42 78 22 42 78 22 42 78 22 42 78 22 42 78 22 42 78 22 42 78
8 12 28 8 12 28 8 12 28 8 12 28 8 12 28 8 12 28 8 12 28 8 12 28 8 12 28 18 18 28 184 132 76 184 132 76 184 132 76 184 132 76 184 132 76 184 132 76 184 132 76 184 132 76 184 132 76 184 132 76 184 132 76 184 132 76 184 132 76 18 18 28 8 12 28 8 12 28 8 12 28 8 12 28 8 12 28 8 12 28 8 12 28 8 12 28
22 42 78 8 12 28 8 12 28 8 12 28 22 42 78 8 12 28 8 12 28 8 12 28 22 42 78 8 12 28 18 18 28 18 18 28 184 132 76 184 132 76 184 132 76 184 132 76 184 132 76 184 132 76 184 132 76 184 132 76 184 132 76 18 18 28 18 18 28 8 12 28 22 42 78 8 12 28 8 12 28 8 12 28 22 42 78 8 12 28 8 12 28 8 12 28
8 12 28 8 12 28 8 12 28 8 12 28 8 12 28 8 12 28 8 12 28 8 12 28 8 12 28 8 12 28 8 12 28 8 12 28 18 18 28 18 18 28 18 18 28 18 18 28 18 18 28 18 18 28 18 18 28 18 18 28 18 18 28 8 12 28 8 12 28 8 12 28 8 12 28 8 12 28 8 12 28 8 12 28 8 12 28 8 12 28 8 12 28 8 12 28
22 42 78 22 42 78 22 42 78 22 42 78 22 42 78 22 42 78 22 42 78 22 42 78 22 42 78 22 42 78 22 42 78 22 42 78 22 42 78 22 42 78 22 42 78 22 42 78 22 42 78 22 42 78 22 42 78 22 42 78 22 42 78 22 42 78 22 42 78 22 42 78 22 42 78 22 42 78 22 42 78 22 42 78 22 42 78 22 42 78 22 42 78 22 42 78
8 12 28 8 12 28 8 12 28 8 12 28 8 12 28 8 12 28 8 12 28 8 12 28 8 12 28 8 12 28 8 12 28 8 12 28 8 12 28 8 12 28 8 12 28 8 12 28 8 12 28 8 12 28 8 12 28 8 12 28 8 12 28 8 12 28 8 12 28 8 12 28 8 12 28 8 12 28 8 12 28 8 12 28 8 12 28 8 12 28 8 12 28 8 12 28
22 42 78 8 12 28 8 12 28 8 12 28 22 42 78 8 12 28 8 12 28 8 12 28 22 42 78 8 12 28 8 12 28 8 12 28 22 42 78 8 12 28 8 12 28 8 12 28 22 42 78 8 12 28 8 12 28 8 12 28 22 42 78 8 12 28 8 12 28 8 12 28 22 42 78 8 12 28 8 12 28 8 12 28 22 42 78 8 12 28 8 12 28 8 12 28
8 12 28 8 12 28 8 12 28 8 12 28 8 12 28 8 12 28 8 12 28 8 12 28 8 12 28 8 12 28 8 12 28 8 12 28 8 12 28 8 12 28 8 12 28 8 12 28 8 12 28 8 12 28 8 12 28 8 12 28 8 12 28 8 12 28 8 12 28 8 12 28 8 12 28 8 12 28 8 12 28 8 12 28 8 12 28 8 12 28 8 12 28 8 12 28
